.files/icons/devices/Hard-drive.svg

<svg fill="none" height="48" viewBox="0 0 48 48" width="48" xmlns="http://www.w3.org/2000/svg"><g fill="#000"><path clip-rule="evenodd" d="m4 26h40v12c0 1.1046-.8954 2-2 2h-36c-1.10457 0-2-.8954-2-2zm33 10c1.6569 0 3-1.3431 3-3s-1.3431-3-3-3-3 1.3431-3 3 1.3431 3 3 3zm-7-3c0 1.6569-1.3431 3-3 3s-3-1.3431-3-3 1.3431-3 3-3 3 1.3431 3 3z" fill-rule="evenodd"/><path d="m4 17c0-.5523.44772-1 1-1h38c.5523 0 1 .4477 1 1v9h-40z" opacity=".3"/></g></svg>

<svg width="48" height="48" viewBox="0 0 48 48" fill="none" xmlns="http://www.w3.org/2000/svg">
<path fill-rule="evenodd" clip-rule="evenodd" d="M4 26H44V38C44 39.1046 43.1046 40 42 40H6C4.89543 40 4 39.1046 4 38V26ZM37 36C38.6569 36 40 34.6569 40 33C40 31.3431 38.6569 30 37 30C35.3431 30 34 31.3431 34 33C34 34.6569 35.3431 36 37 36ZM30 33C30 34.6569 28.6569 36 27 36C25.3431 36 24 34.6569 24 33C24 31.3431 25.3431 30 27 30C28.6569 30 30 31.3431 30 33Z" fill="black"/>
<path opacity="0.3" d="M4 17C4 16.4477 4.44772 16 5 16H43C43.5523 16 44 16.4477 44 17V26H4V17Z" fill="black"/>
</svg>
